src/components/ui/Logo/logo.svg

<svg width="224" height="56" viewBox="0 0 224 56" fill="none" xmlns="http://www.w3.org/2000/svg">
<g clip-path="url(#clip0_7311_3877)">
<path fill-rule="evenodd" clip-rule="evenodd" d="M2.63811 40.097C0.798113 42.837 -0.377887 44.292 0.111112 47.977C0.463112 50.623 1.88611 53.117 4.11611 54.582C6.55811 56.188 9.69611 56.466 12.3201 55.114C15.1501 53.654 15.9261 51.999 17.0461 49.184L42.9901 49.188C44.1371 52.055 44.8971 53.671 47.7871 55.15C53.0581 57.847 59.5941 53.819 59.9801 47.406C60.0761 45.814 59.8281 44.246 59.1741 42.791C58.4121 41.094 57.7821 40.865 56.9111 39.591C58.0981 37.018 58.5071 34.881 57.2431 32.179C55.0431 27.475 48.9501 26.499 45.5831 30.723C44.8291 31.668 44.8651 33.005 44.3821 34.127C43.9181 35.206 43.3721 36.022 42.7171 36.976C47.9101 37.804 44.5231 34.615 47.6181 31.596C49.8271 29.443 52.9001 29.841 54.8251 32.146C57.7991 35.708 54.4271 38.727 54.4571 39.906C54.4811 40.876 58.0711 42.352 57.9871 46.894C57.8701 53.182 50.3741 56.373 46.3861 51.407C42.2541 46.262 50.6361 46.999 29.9121 46.999H19.5991C18.4861 46.999 15.6031 46.528 15.2151 47.838C14.7301 49.474 14.7551 50.048 13.6031 51.466C9.57311 56.429 1.99311 53.061 2.04911 46.676C2.06111 45.288 2.45911 43.862 3.23211 42.709C3.93511 41.661 5.59711 40.7 4.91911 39.609C4.04211 38.199 3.42611 37.999 3.27811 36.027C2.90211 31.018 8.41611 28.389 11.7251 31.652C14.6121 34.499 11.2621 37.887 16.7861 36.974C16.1261 36.036 15.4561 35.117 15.0921 34.051C14.6441 32.741 14.5101 31.794 13.6321 30.693C12.0171 28.669 9.37711 27.631 6.83011 28.205C1.48711 29.41 -0.129887 35.565 2.63811 40.097V40.097Z" fill="white" fill-opacity="0.85"/>
<path fill-rule="evenodd" clip-rule="evenodd" d="M31.113 20.778C34.068 20.068 35.444 23.717 32.481 24.472C29.456 25.242 27.906 21.547 31.113 20.778V20.778ZM29.677 36.348L29.734 36.301C30.089 36.419 30.808 38.751 33.363 39.441C36.697 40.342 40.553 38.516 42.563 35.4C43.139 34.506 44.937 31.306 43.411 30.673C42.076 30.12 41.548 33.228 40.704 34.493C39.798 35.85 38.226 36.902 36.653 37.272C31.293 38.534 30.72 33.902 30.769 29.812C33.442 29.011 36.335 25.559 36.159 22.643C35.941 19.033 30.911 17.921 28.045 18.486C24.267 19.232 22.132 21.8 24.075 25.623C26.265 29.927 28.643 29.085 28.751 30.337C29.141 34.837 26.509 39.834 20.948 36.509C19.609 35.708 18.694 34.529 18.027 33.129C17.779 32.609 17.394 31.112 17.175 30.877C16.546 30.206 15.428 30.719 15.464 31.739C15.559 34.432 18.514 37.881 20.939 38.882C24.279 40.262 28.004 39.932 29.677 36.349V36.348ZM36.023 15.816C35.254 14.029 34.51 12.251 35.704 10.332C36.804 8.56496 38.911 8.50196 40.469 9.71496C43.731 12.252 43.727 18.559 39.609 18.284C41.866 17.55 42.545 15.17 41.483 13.086L39.05 14.93L39.859 11.797C36.992 11.085 35.956 13.387 36.023 15.815V15.816ZM37.293 6.82296C29.823 8.34296 33.311 21.692 40.657 20.389C48.097 19.069 44.684 5.31896 37.293 6.82296V6.82296ZM21.235 14.669L18.889 12.843C18.2 13.566 18.141 14.941 18.429 15.864C18.772 16.963 19.209 17.258 20.059 17.857C15.911 17.514 16.515 12.166 18.912 9.69696C20.142 8.43096 22.122 7.93696 23.58 9.15996C25.147 10.472 24.767 12.682 24.367 14.385C23.712 13.295 23.876 11.925 21.893 11.51C19.686 11.049 20.673 11.948 21.235 14.669V14.669ZM20.88 6.36996C13.12 7.65396 13.153 21.22 20.905 19.96C28.637 18.702 28.602 5.09296 20.88 6.36996V6.36996ZM34.938 0.0459611C33.824 0.225961 33.666 1.53896 34.381 2.01496C35.106 2.49696 36.939 1.47996 38.868 4.35096C39.342 5.05696 39.542 6.17096 40.513 6.04996C43.176 5.71796 38.947 -0.600039 34.938 0.0459611V0.0459611ZM22.32 0.0699611C20.606 0.316961 19.2 1.38196 18.208 2.75996C15.788 6.12896 18.213 6.61996 18.899 5.60196C19.836 4.21196 20.33 2.67696 22.283 2.24696C23.093 2.06896 24.565 2.49296 24.493 1.05696C24.433 -0.125039 23.176 -0.0530389 22.319 0.0709611L22.32 0.0699611Z" fill="#321F08"/>
<path d="M80.006 41.5C79.213 41.5 78.593 41.272 78.146 40.816C77.709 40.352 77.49 39.704 77.49 38.875V24.396C77.49 23.567 77.709 22.924 78.147 22.469C78.593 22.004 79.213 21.771 80.006 21.771H85.502C88.501 21.771 90.825 22.615 92.475 24.301C94.134 25.987 94.963 28.393 94.963 31.52C94.963 34.664 94.129 37.116 92.461 38.875C90.802 40.625 88.482 41.5 85.502 41.5H80.006V41.5ZM82.508 37.453H84.846C86.486 37.453 87.731 36.956 88.578 35.963C89.435 34.969 89.863 33.493 89.863 31.533C89.863 29.693 89.426 28.279 88.551 27.295C87.676 26.31 86.441 25.818 84.846 25.818H82.508V37.453ZM109.811 39.805C108.452 41.172 106.593 41.855 104.232 41.855C101.872 41.855 100.012 41.172 98.654 39.805C97.296 38.428 96.617 36.51 96.617 34.049C96.617 31.634 97.305 29.733 98.682 28.348C100.058 26.953 101.908 26.256 104.232 26.256C106.575 26.256 108.43 26.949 109.797 28.334C111.164 29.719 111.848 31.624 111.848 34.049C111.848 36.519 111.169 38.438 109.811 39.805V39.805ZM102.25 37.193C102.733 37.932 103.394 38.301 104.232 38.301C105.071 38.301 105.732 37.931 106.215 37.193C106.698 36.455 106.939 35.411 106.939 34.063C106.939 32.732 106.693 31.693 106.201 30.945C105.718 30.189 105.062 29.811 104.232 29.811C103.403 29.811 102.747 30.189 102.264 30.945C101.781 31.693 101.539 32.732 101.539 34.062C101.539 35.412 101.776 36.455 102.25 37.193V37.193ZM120.693 47.106C119.098 47.096 117.722 46.832 116.564 46.312C115.407 45.793 114.587 45.128 114.104 44.316C113.895 43.9451 113.786 43.5259 113.789 43.1C113.789 42.607 113.962 42.202 114.309 41.883C114.664 41.563 115.129 41.404 115.703 41.404C116.305 41.404 116.833 41.6 117.289 41.992C118.428 42.949 119.54 43.432 120.625 43.442C121.618 43.442 122.393 43.195 122.949 42.703C123.505 42.211 123.783 41.541 123.783 40.693V38.315H123.688C123.387 39.107 122.831 39.75 122.02 40.242C121.217 40.725 120.274 40.967 119.189 40.967C117.357 40.967 115.913 40.32 114.855 39.025C113.798 37.731 113.27 35.958 113.27 33.707C113.27 31.383 113.789 29.583 114.828 28.307C115.876 27.031 117.353 26.393 119.258 26.393C120.315 26.393 121.236 26.653 122.02 27.172C122.784 27.6688 123.376 28.3897 123.715 29.236H123.811V28.73C123.811 27.928 124.034 27.322 124.48 26.912C124.936 26.502 125.529 26.297 126.258 26.297C126.987 26.297 127.566 26.502 127.994 26.912C128.432 27.322 128.65 27.928 128.65 28.731V40.775C128.65 42.79 127.958 44.348 126.572 45.451C125.196 46.554 123.236 47.105 120.693 47.105V47.106ZM121.021 37.536C121.896 37.536 122.58 37.212 123.072 36.565C123.574 35.908 123.824 34.983 123.824 33.789C123.824 32.604 123.574 31.665 123.072 30.973C122.571 30.271 121.887 29.92 121.021 29.92C120.156 29.92 119.472 30.266 118.971 30.959C118.479 31.652 118.232 32.595 118.232 33.789C118.232 34.983 118.474 35.909 118.957 36.565C119.449 37.212 120.137 37.535 121.021 37.535V37.536ZM135.691 41.117C135.254 41.573 134.639 41.801 133.846 41.801C133.053 41.801 132.433 41.573 131.986 41.117C131.549 40.661 131.33 40.019 131.33 39.19V24.397C131.33 23.567 131.549 22.924 131.986 22.469C132.433 22.004 133.053 21.771 133.846 21.771H142.787C143.471 21.771 144.013 21.949 144.414 22.305C144.815 22.66 145.016 23.157 145.016 23.795C145.016 24.424 144.811 24.921 144.4 25.285C143.999 25.641 143.462 25.818 142.787 25.818H136.348V30.303H142.145C142.783 30.303 143.288 30.476 143.662 30.823C144.045 31.16 144.236 31.629 144.236 32.23C144.236 32.832 144.049 33.301 143.676 33.639C143.302 33.976 142.792 34.144 142.145 34.144H136.348V39.19C136.348 40.019 136.129 40.661 135.691 41.117V41.117ZM159.029 39.805C157.671 41.172 155.812 41.855 153.451 41.855C151.09 41.855 149.231 41.172 147.873 39.805C146.515 38.428 145.836 36.51 145.836 34.049C145.836 31.634 146.524 29.733 147.9 28.348C149.277 26.953 151.127 26.256 153.451 26.256C155.794 26.256 157.648 26.949 159.016 28.334C160.383 29.719 161.066 31.624 161.066 34.049C161.066 36.519 160.387 38.438 159.029 39.805V39.805ZM151.469 37.193C151.952 37.932 152.613 38.301 153.451 38.301C154.29 38.301 154.951 37.931 155.434 37.193C155.917 36.455 156.158 35.411 156.158 34.063C156.158 32.732 155.912 31.693 155.42 30.945C154.937 30.189 154.281 29.811 153.451 29.811C152.622 29.811 151.965 30.189 151.482 30.945C150.999 31.693 150.758 32.732 150.758 34.062C150.758 35.412 150.995 36.455 151.469 37.193V37.193ZM175.682 39.805C174.324 41.172 172.464 41.855 170.104 41.855C167.743 41.855 165.883 41.172 164.525 39.805C163.167 38.428 162.488 36.51 162.488 34.049C162.488 31.634 163.176 29.733 164.553 28.348C165.929 26.953 167.779 26.256 170.104 26.256C172.446 26.256 174.301 26.949 175.668 28.334C177.035 29.719 177.719 31.624 177.719 34.049C177.719 36.519 177.04 38.438 175.682 39.805V39.805ZM168.121 37.193C168.604 37.932 169.265 38.301 170.104 38.301C170.942 38.301 171.603 37.931 172.086 37.193C172.569 36.455 172.811 35.411 172.811 34.063C172.811 32.732 172.564 31.693 172.072 30.945C171.589 30.189 170.933 29.811 170.104 29.811C169.274 29.811 168.618 30.189 168.135 30.945C167.652 31.693 167.41 32.732 167.41 34.062C167.41 35.412 167.647 36.455 168.121 37.193V37.193ZM185.074 41.719C183.224 41.719 181.77 41.039 180.713 39.682C179.665 38.315 179.141 36.428 179.141 34.022C179.141 31.642 179.674 29.779 180.74 28.43C181.807 27.072 183.27 26.393 185.129 26.393C186.186 26.393 187.107 26.653 187.891 27.172C188.661 27.6629 189.254 28.3857 189.586 29.236H189.682V23.973C189.682 23.153 189.9 22.528 190.338 22.1C190.775 21.671 191.363 21.457 192.102 21.457C192.84 21.457 193.428 21.671 193.865 22.1C194.303 22.528 194.521 23.152 194.521 23.973V39.326C194.521 40.137 194.303 40.757 193.865 41.186C193.428 41.605 192.84 41.815 192.102 41.815C191.372 41.815 190.785 41.605 190.338 41.185C189.9 40.757 189.682 40.137 189.682 39.326V38.902H189.586C189.294 39.732 188.743 40.411 187.932 40.94C187.13 41.459 186.177 41.719 185.074 41.719V41.719ZM184.842 36.906C185.334 37.59 186.018 37.932 186.893 37.932C187.768 37.932 188.451 37.59 188.943 36.906C189.445 36.223 189.695 35.275 189.695 34.063C189.695 32.868 189.445 31.925 188.943 31.233C188.442 30.531 187.758 30.18 186.893 30.18C186.027 30.18 185.343 30.526 184.842 31.219C184.35 31.911 184.104 32.859 184.104 34.062C184.104 35.266 184.35 36.214 184.842 36.906Z" fill="white" fill-opacity="0.85"/>
</g>
<defs>
<clipPath id="clip0_7311_3877">
<rect width="224" height="56" fill="white"/>
</clipPath>
</defs>
</svg>

<svg width="224" height="56" fill="none" xmlns="http://www.w3.org/2000/svg"><path fill-rule="evenodd" clip-rule="evenodd" d="M2.638 40.097c-1.84 2.74-3.016 4.195-2.527 7.88.352 2.646 1.775 5.14 4.005 6.605 2.442 1.606 5.58 1.884 8.204.532 2.83-1.46 3.606-3.115 4.726-5.93l25.944.004c1.147 2.867 1.907 4.483 4.797 5.962 5.271 2.697 11.807-1.331 12.193-7.744.096-1.592-.152-3.16-.806-4.615-.762-1.697-1.392-1.926-2.263-3.2 1.187-2.573 1.596-4.71.332-7.412-2.2-4.704-8.293-5.68-11.66-1.456-.754.945-.718 2.282-1.201 3.404-.464 1.079-1.01 1.895-1.665 2.849 5.193.828 1.806-2.361 4.901-5.38 2.209-2.153 5.282-1.755 7.207.55 2.974 3.562-.398 6.581-.368 7.76.024.97 3.614 2.446 3.53 6.988-.117 6.288-7.613 9.479-11.601 4.513-4.132-5.145 4.25-4.408-16.474-4.408H19.599c-1.113 0-3.996-.471-4.384.839-.485 1.636-.46 2.21-1.612 3.628-4.03 4.963-11.61 1.595-11.554-4.79.012-1.388.41-2.814 1.183-3.967.703-1.048 2.365-2.009 1.687-3.1-.877-1.41-1.493-1.61-1.641-3.582-.376-5.009 5.138-7.638 8.447-4.375 2.887 2.847-.463 6.235 5.061 5.322-.66-.938-1.33-1.857-1.694-2.923-.448-1.31-.582-2.257-1.46-3.358-1.615-2.024-4.255-3.062-6.802-2.488-5.343 1.205-6.96 7.36-4.192 11.892Z" fill="#222327"/><path fill-rule="evenodd" clip-rule="evenodd" d="M31.113 20.778c2.955-.71 4.331 2.939 1.368 3.694-3.025.77-4.575-2.925-1.368-3.694Zm-1.436 15.57.057-.047c.355.118 1.074 2.45 3.629 3.14 3.334.901 7.19-.925 9.2-4.041.576-.894 2.374-4.094.848-4.727-1.335-.553-1.863 2.555-2.707 3.82-.906 1.357-2.478 2.409-4.051 2.779-5.36 1.262-5.933-3.37-5.884-7.46 2.673-.801 5.566-4.253 5.39-7.169-.218-3.61-5.248-4.722-8.114-4.157-3.778.746-5.913 3.314-3.97 7.137 2.19 4.304 4.568 3.462 4.676 4.714.39 4.5-2.242 9.497-7.803 6.172-1.339-.801-2.254-1.98-2.921-3.38-.248-.52-.633-2.017-.852-2.252-.629-.671-1.747-.158-1.711.862.095 2.693 3.05 6.142 5.475 7.143 3.34 1.38 7.065 1.05 8.738-2.533ZM36.023 15.816c-.769-1.787-1.513-3.565-.319-5.484 1.1-1.767 3.207-1.83 4.765-.617 3.262 2.537 3.258 8.844-.86 8.569 2.257-.734 2.936-3.114 1.874-5.198L39.05 14.93l.809-3.133c-2.867-.712-3.903 1.59-3.836 4.018Zm1.27-8.993c-7.47 1.52-3.982 14.869 3.364 13.566 7.44-1.32 4.027-15.07-3.364-13.566ZM21.235 14.669l-2.346-1.826c-.689.723-.748 2.098-.46 3.021.343 1.099.78 1.394 1.63 1.993-4.148-.343-3.544-5.691-1.147-8.16 1.23-1.266 3.21-1.76 4.668-.537 1.567 1.312 1.187 3.522.787 5.225-.655-1.09-.491-2.46-2.474-2.875-2.207-.461-1.22.438-.658 3.159ZM20.88 6.37c-7.76 1.284-7.727 14.85.025 13.59 7.732-1.258 7.697-14.867-.025-13.59ZM34.938.046c-1.114.18-1.272 1.493-.557 1.969.725.482 2.558-.535 4.487 2.336.474.706.674 1.82 1.645 1.699 2.663-.332-1.566-6.65-5.575-6.004ZM22.32.07c-1.714.247-3.12 1.312-4.112 2.69-2.42 3.369.005 3.86.691 2.842.937-1.39 1.431-2.925 3.384-3.355.81-.178 2.282.246 2.21-1.19-.06-1.182-1.317-1.11-2.174-.986Z" fill="#222327"/><path d="M80.006 41.5c-.793 0-1.413-.228-1.86-.684-.437-.464-.656-1.112-.656-1.941V24.396c0-.829.219-1.472.657-1.927.446-.465 1.066-.698 1.859-.698h5.496c2.999 0 5.323.844 6.973 2.53 1.659 1.686 2.488 4.092 2.488 7.219 0 3.144-.834 5.596-2.502 7.355-1.659 1.75-3.979 2.625-6.959 2.625h-5.496Zm2.502-4.047h2.338c1.64 0 2.885-.497 3.732-1.49.857-.994 1.285-2.47 1.285-4.43 0-1.84-.437-3.254-1.312-4.238-.875-.985-2.11-1.477-3.705-1.477h-2.338v11.635Zm27.303 2.352c-1.359 1.367-3.218 2.05-5.579 2.05-2.36 0-4.22-.683-5.578-2.05-1.358-1.377-2.037-3.295-2.037-5.756 0-2.415.688-4.316 2.065-5.701 1.376-1.395 3.226-2.092 5.55-2.092 2.343 0 4.198.693 5.565 2.078 1.367 1.385 2.051 3.29 2.051 5.715 0 2.47-.679 4.389-2.037 5.756Zm-7.561-2.612c.483.739 1.144 1.108 1.982 1.108.839 0 1.5-.37 1.983-1.108.483-.738.724-1.782.724-3.13 0-1.331-.246-2.37-.738-3.118-.483-.756-1.139-1.134-1.969-1.134-.829 0-1.485.378-1.968 1.134-.483.748-.725 1.787-.725 3.117 0 1.35.237 2.393.711 3.131Zm18.443 9.913c-1.595-.01-2.971-.274-4.129-.794-1.157-.519-1.977-1.184-2.46-1.996a2.443 2.443 0 0 1-.315-1.216c0-.493.173-.898.52-1.217.355-.32.82-.479 1.394-.479.602 0 1.13.196 1.586.588 1.139.957 2.251 1.44 3.336 1.45.993 0 1.768-.247 2.324-.739.556-.492.834-1.162.834-2.01v-2.378h-.095c-.301.792-.857 1.435-1.668 1.927-.803.483-1.746.725-2.831.725-1.832 0-3.276-.647-4.334-1.942-1.057-1.294-1.585-3.067-1.585-5.318 0-2.324.519-4.124 1.558-5.4 1.048-1.276 2.525-1.914 4.43-1.914 1.057 0 1.978.26 2.762.779a4.42 4.42 0 0 1 1.695 2.064h.096v-.506c0-.802.223-1.408.669-1.818.456-.41 1.049-.615 1.778-.615.729 0 1.308.205 1.736.615.438.41.656 1.016.656 1.819v12.044c0 2.015-.692 3.573-2.078 4.676-1.376 1.103-3.336 1.654-5.879 1.654Zm.328-9.57c.875 0 1.559-.324 2.051-.971.502-.657.752-1.582.752-2.776 0-1.185-.25-2.124-.752-2.816-.501-.702-1.185-1.053-2.051-1.053-.865 0-1.549.346-2.05 1.039-.492.693-.739 1.636-.739 2.83 0 1.194.242 2.12.725 2.776.492.647 1.18.97 2.064.97Zm14.67 3.581c-.437.456-1.052.684-1.845.684-.793 0-1.413-.228-1.86-.684-.437-.456-.656-1.098-.656-1.927V24.397c0-.83.219-1.473.656-1.928.447-.465 1.067-.698 1.86-.698h8.941c.684 0 1.226.178 1.627.534.401.355.602.852.602 1.49 0 .629-.205 1.126-.616 1.49-.401.356-.938.533-1.613.533h-6.439v4.485h5.797c.638 0 1.143.173 1.517.52.383.337.574.806.574 1.407 0 .602-.187 1.071-.56 1.409-.374.337-.884.505-1.531.505h-5.797v5.046c0 .829-.219 1.471-.657 1.927Zm23.338-1.312c-1.358 1.367-3.217 2.05-5.578 2.05s-4.22-.683-5.578-2.05c-1.358-1.377-2.037-3.295-2.037-5.756 0-2.415.688-4.316 2.064-5.701 1.377-1.395 3.227-2.092 5.551-2.092 2.343 0 4.197.693 5.565 2.078 1.367 1.385 2.05 3.29 2.05 5.715 0 2.47-.679 4.389-2.037 5.756Zm-7.56-2.612c.483.739 1.144 1.108 1.982 1.108.839 0 1.5-.37 1.983-1.108.483-.738.724-1.782.724-3.13 0-1.331-.246-2.37-.738-3.118-.483-.756-1.139-1.134-1.969-1.134-.829 0-1.486.378-1.969 1.134-.483.748-.724 1.787-.724 3.117 0 1.35.237 2.393.711 3.131Zm24.213 2.612c-1.358 1.367-3.218 2.05-5.578 2.05-2.361 0-4.221-.683-5.579-2.05-1.358-1.377-2.037-3.295-2.037-5.756 0-2.415.688-4.316 2.065-5.701 1.376-1.395 3.226-2.092 5.551-2.092 2.342 0 4.197.693 5.564 2.078 1.367 1.385 2.051 3.29 2.051 5.715 0 2.47-.679 4.389-2.037 5.756Zm-7.561-2.612c.483.739 1.144 1.108 1.983 1.108.838 0 1.499-.37 1.982-1.108.483-.738.725-1.782.725-3.13 0-1.331-.247-2.37-.739-3.118-.483-.756-1.139-1.134-1.968-1.134-.83 0-1.486.378-1.969 1.134-.483.748-.725 1.787-.725 3.117 0 1.35.237 2.393.711 3.131Zm16.953 4.526c-1.85 0-3.304-.68-4.361-2.037-1.048-1.367-1.572-3.254-1.572-5.66 0-2.38.533-4.243 1.599-5.592 1.067-1.358 2.53-2.037 4.389-2.037 1.057 0 1.978.26 2.762.779a4.305 4.305 0 0 1 1.695 2.064h.096v-5.263c0-.82.218-1.445.656-1.873.437-.429 1.025-.643 1.764-.643.738 0 1.326.214 1.763.643.438.428.656 1.052.656 1.873v15.353c0 .811-.218 1.431-.656 1.86-.437.419-1.025.629-1.763.629-.73 0-1.317-.21-1.764-.63-.438-.428-.656-1.048-.656-1.859v-.424h-.096c-.292.83-.843 1.509-1.654 2.038-.802.519-1.755.779-2.858.779Zm-.232-4.813c.492.684 1.176 1.026 2.051 1.026.875 0 1.558-.342 2.05-1.026.502-.683.752-1.631.752-2.843 0-1.195-.25-2.138-.752-2.83-.501-.702-1.185-1.053-2.05-1.053-.866 0-1.55.346-2.051 1.039-.492.692-.738 1.64-.738 2.843 0 1.204.246 2.152.738 2.844Z" fill="#1A1A1A"/></svg>
